X:903
T:Reel 903
M:4/4
K:Dmix
L:1/8
dg|A>D (3DDD A>D (3DDD |G>c (3ccc e>c (3ccc |e>c (3GCc B>G (3Gcc |G>C (3CCc G>E (3EFG |A>D (3DDD A>D (3DDD |ADDF G2BG|B>c (3ABc d>f (3edc |G2|GFG|B>G (3GFG D2cD|E>C (3cCc E>G (3GFE |E>C (3ECC c>D (3EDc |d>D (3DcD A>c (3ccc |B>E (3Gcd c>D (3dcd |G>E (3ECc E>d (3ccc |BABG A2FDED|CDCD C2|GFG|
